round/svg/fiber_pin.svg

<svg xmlns="http://www.w3.org/2000/svg" width="24" height="24"><g fill="currentColor"><path d="M20 4H4c-1.11 0-1.99.89-1.99 2L2 18c0 1.11.89 2 2 2h16c1.11 0 2-.89 2-2V6c0-1.11-.89-2-2-2zM9 11.5c0 .83-.67 1.5-1.5 1.5h-2v1.25c0 .41-.34.75-.75.75S4 14.66 4 14.25V10c0-.55.45-1 1-1h2.5c.83 0 1.5.67 1.5 1.5v1zm3.5 2.75c0 .41-.34.75-.75.75s-.75-.34-.75-.75v-4.5c0-.41.34-.75.75-.75s.75.34.75.75v4.5zm7.5-.04a.787.787 0 1 1-1.43.46l-2.31-3.17v2.88c0 .34-.28.62-.62.62h-.01c-.35 0-.63-.28-.63-.62V9.83c0-.46.37-.83.83-.83.27 0 .52.13.67.35l2.25 3.15V9.62c0-.34.28-.62.62-.62h.01c.34 0 .62.28.62.62v4.59z"/><path d="M5.5 10.5h2v1h-2z"/></g></svg>

<?xml version="1.0" encoding="utf-8"?>
<!-- Generator: Adobe Illustrator 19.1.0, SVG Export Plug-In . SVG Version: 6.00 Build 0)  -->
<svg version="1.1" xmlns="http://www.w3.org/2000/svg" xmlns:xlink="http://www.w3.org/1999/xlink" x="0px" y="0px" width="24px"
	 height="24px" viewBox="0 0 24 24" enable-background="new 0 0 24 24" xml:space="preserve">
<g id="Bounding_Boxes" display="none">
	<path display="inline" fill="none" d="M0,0h24v24H0V0z"/>
</g>
<g id="Rounded" fill="currentColor">
	<g>
		<path d="M20,4H4C2.89,4,2.01,4.89,2.01,6L2,18c0,1.11,0.89,2,2,2h16c1.11,0,2-0.89,2-2V6C22,4.89,21.11,4,20,4z M9,11.5
			C9,12.33,8.33,13,7.5,13h-2v1.25C5.5,14.66,5.16,15,4.75,15S4,14.66,4,14.25V10c0-0.55,0.45-1,1-1h2.5C8.33,9,9,9.67,9,10.5V11.5z
			 M12.5,14.25c0,0.41-0.34,0.75-0.75,0.75S11,14.66,11,14.25v-4.5C11,9.34,11.34,9,11.75,9s0.75,0.34,0.75,0.75V14.25z M20,14.21
			c0,0.44-0.35,0.79-0.79,0.79h0c-0.25,0-0.49-0.12-0.64-0.33l-2.31-3.17v2.88c0,0.34-0.28,0.62-0.62,0.62h-0.01
			C15.28,15,15,14.72,15,14.38V9.83C15,9.37,15.37,9,15.83,9c0.27,0,0.52,0.13,0.67,0.35l2.25,3.15V9.62c0-0.34,0.28-0.62,0.62-0.62
			h0.01C19.72,9,20,9.28,20,9.62V14.21z"/>
		<rect x="5.5" y="10.5" width="2" height="1"/>
	</g>
</g>
</svg>
